X:62
T:Derrylee Reel*, The
B:CRE2.241 (gan ainm)
S:Paddy Taylor
F:file ID: cre.2/062derry
Q:180
L:1/8
M:4/4
R:reel
K:Am
B|(3cBA eA (3cBA eA|(3cBA eA dB G2|Beee d2 ed|BGGG BcdB|
(3cBA eA (3cBA eA|(3cBA eA dBGA|Beee d2 ed|BGGG Bcd||
B|(3cBA BA a2 a^f|g^fed (3efg a2|ABcd eggg|BGGG BcdB|
(3cBA BA a2 a^f|g^fed efge|^f2fd e2ed|BGGG Bcd||

%%%

